!!!!SEGMENT: pl-sa--176-a-v-6--004_anonim--msza-sanctus.krn
!!!cenid: 17xx:1615
!!!COM: Anonim
!!!COM-rismID: pe30004985
!!!CDT:
!!!CNT:
!!!OPR: Msza
!!!OTL: Sanctus
!!!OMV: 004
!!!PDT:
!!!AGN: Sacred; Mass
!!!SMS-siglum: PL-SA
!!!SMS-shelfmark: 176/A V 6
!!!SMS-shelfwork: 001-004 M
!!!SMS-variant:
!!!SMS-altvar: s
!!!NIFC-rismSourceID: 1001035881
!!!NIFC-rismChildID: 1001035881
!!!NIFC-islandoraID:
!!!URL-pdf-islandora:
!!!URL-scan: https://bc.bdsandomierz.pl/dlibra/publication/1510/edition/1478/content @EN{Scan in the Sandomierz Diocese Digital Library} @PL{Skany w portalu Cyfrowa Biblioteka Diecezjalna w Sandomierzu}
!!!ONB-nifc: UWAGA: części Mszy: 1. Kyrie, 2. Et in terra, 3. Patrem, 4. Sanctus, 5. Osanna, 6. Benedictus, 7. Agnus Dei. Uwaga: błąd w sygnaturze w metadanych bc.bdsandomierz.pl
!!!AIN: 1 alto 1 bass 2 corno 1 organ 1 soprn 1 tenor 2 violn
!!!key: E-
**kern	**fba	**kern	**kern	**kern	**text	**kern	**text	**kern	**text	**kern	**text	**kern	**kern
*part9	*part9	*part8	*part7	*part6	*part6	*part5	*part5	*part4	*part4	*part3	*part3	*part2	*part1
*staff9	*	*staff8	*staff7	*staff6	*staff6	*staff5	*staff5	*staff4	*staff4	*staff3	*staff3	*staff2	*staff1
*I"ORGANO.	*	*I"Violino 2do	*I"Violino Imo.	*I"Baſso.	*	*I"Tenore.	*	*I"Alto.	*	*I"Canto.	*	*I"Lituo 2do ex Dis ad Libitum	*I"Lituo 1mo ex Dis ad Libitum
*I'org	*	*I'vl 2	*I'vl 1	*I'B	*	*I'T	*	*I'A	*	*I'S	*	*I'lituus 2	*I'lituus 1
*Iorgan	*	*Ivioln	*Ivioln	*Ibass	*	*Itenor	*	*Ialto	*	*Isoprn	*	*Icorno	*Icorno
*ICklav	*	*ICstr	*ICstr	*ICvox	*	*ICvox	*	*ICvox	*	*ICvox	*	*ICww	*ICww
*clefF4	*	*clefG2	*clefG2	*clefF4	*	*clefC4	*	*clefC3	*	*clefC1	*	*clefG2	*clefG2
*	*	*	*	*	*	*	*	*	*	*	*	*ITrd5c9	*ITrd5c9
*k[b-e-a-]	*	*k[b-e-a-]	*k[b-e-a-]	*k[b-e-a-]	*	*k[b-e-a-]	*	*k[b-e-a-]	*	*k[b-e-a-]	*	*k[b-e-a-]	*k[b-e-a-]
*E-:	*	*E-:	*E-:	*E-:	*	*E-:	*	*E-:	*	*E-:	*	*E-:	*E-:
*M3/4	*	*M3/4	*M3/4	*M3/4	*	*M3/4	*	*M3/4	*	*M3/4	*	*M3/4	*M3/4
*2\right	*	*2\right	*2\right	*2\right	*	*2\right	*	*2\right	*	*2\right	*	*2\right	*2\right
=1	=1	=1	=1	=1	=1	=1	=1	=1	=1	=1	=1	=1	=1
!LO:TX:b:t=Sanctus.	!	!	!	!	!	!	!	!	!	!	!	!	!
8E-\L	.	2.r	2.r	2.r	.	2.r	.	8r	.	2.r	.	2.r	2.r
8E-\	.	.	.	.	.	.	.	8e-\L	San-	.	.	.	.
8E-\	.	.	.	.	.	.	.	8g\	.	.	.	.	.
8E-\	.	.	.	.	.	.	.	8b-\	.	.	.	.	.
8E-\	.	.	.	.	.	.	.	8g\	.	.	.	.	.
8E-\J	.	.	.	.	.	.	.	8e-\J	.	.	.	.	.
=2	=2	=2	=2	=2	=2	=2	=2	=2	=2	=2	=2	=2	=2
8D\L	6_	2.r	2.r	2.r	.	8r	.	4f\	.	2.r	.	2.r	2.r
8D\	.	.	.	.	.	8B-\L	San-	.	.	.	.	.	.
8D\	.	.	.	.	.	8d\	.	4B-/	-ctus	.	.	.	.
8D\	.	.	.	.	.	8f\	.	.	.	.	.	.	.
8D\	.	.	.	.	.	8d\	.	4r	.	.	.	.	.
8D\J	x	.	.	.	.	8B-\J	.	.	.	.	.	.	.
=3	=3	=3	=3	=3	=3	=3	=3	=3	=3	=3	=3	=3	=3
8E-\L	.	8r	8r	8E-\	San-	8e-\	.	8g\	San-	8b-\	San-	8e-\L	8g\L
8E-\	.	8b-\L	8ee-\L	8E-\	-ctus	8B-\	-ctus	8g\	-ctus	8b-\	-ctus	8g\	8b-\
*	*	*	*	*	*	*	*	*	*ij	*	*ij	*	*
8E-\	.	8b-\	8gg\	8E-\	San-	8e-\	San-	8g\	San-	8b-\	San-	8g\	8b-\
8E-\	.	8b-\	8bb-\	8E-\	-ctus	8g\	-ctus	8g\	-ctus	8b-\	-ctus	8g\	8b-\
*	*	*	*	*	*ij	*	*ij	*	*Xij	*	*Xij	*	*
8E-\	.	8b-\	8gg\	8E-\	San-	8e-\	San-	8g\	San-	8b-\	San-	8g\	8b-\
8E-\J	.	8b-\J	8ee-\J	8E-\	-ctus	8B-\	-ctus	8g\	-ctus	8b-\	-ctus	8e-\J	8g\J
*	*	*	*	*	*Xij	*	*Xij	*	*	*	*	*	*
=4	=4	=4	=4	=4	=4	=4	=4	=4	=4	=4	=4	=4	=4
8D\L	6	8b-\L	8ff\L	4.D\	Do-	4.f\	Do-	4.f\	Do-	4.b-\	Do-	8B-\L	8f\L
8D\	.	8b-\	8ff\	.	.	.	.	.	.	.	.	8f\	8b-\
8D\	.	8dd\	8ff\	.	.	.	.	.	.	.	.	8f\	8b-\
8D\	.	8ff\	8ff\	8D\	-mi-	8B-\	-mi-	8f\	-mi-	8b-\	-mi-	8f\	8b-\
8D\	.	8dd\	8ff\	4D\	-nus	4B-\	-nus	4f\	-nus	4b-\	-nus	8f\	8b-\
8D\J	.	8b-\J	8ff\J	.	.	.	.	.	.	.	.	8B-\J	8f\J
=5	=5	=5	=5	=5	=5	=5	=5	=5	=5	=5	=5	=5	=5
8E-\L	.	4.ee-\	8gg\L	8E-\	San-	8B-\	San-	8g\	San-	8b-\	San-	8e-\L	8g\L
8E-\	.	.	8ee-\	8E-\	-ctus	8e-\	-ctus	8g\	-ctus	8b-\	-ctus	8g\	8b-\
*	*	*	*	*	*	*	*ij	*	*ij	*	*ij	*	*
8E-\	.	.	8gg\	8E-\	San-	8e-\	San-	8g\	San-	8b-\	San-	8g\	8b-\
8E-\	.	8b-\L	8bb-\	8E-\	-ctus	8g\	-ctus	8g\	-ctus	8b-\	-ctus	8g\	8b-\
*	*	*	*	*	*ij	*	*Xij	*	*Xij	*	*Xij	*	*
8E-\	.	8b-\	8gg\	8E-\	San-	8e-\	San-	8g\	San-	8b-\	San-	8g\	8b-\
8E-\J	.	8b-\J	8ee-\J	8E-\	-ctus	8B-\	-ctus	8g\	-ctus	8b-\	-ctus	8e-\J	8g\J
*	*	*	*	*	*Xij	*	*	*	*	*	*	*	*
!	!	!	!	!	!	!	!	!LO:LB:g=original	!	!	!	!	!
=6	=6	=6	=6	=6	=6	=6	=6	=6	=6	=6	=6	=6	=6
8D\L	6_	8b-\L	4.ff\	4D/	Do-	4f\	Do-	4f\	Do-	4b-\	Do-	4B-/	4f\
8D\	.	8b-\	.	.	.	.	.	.	.	.	.	.	.
8D\	.	8dd\	.	8D/	-mi-	8B-\	-mi-	8f\	-mi-	8b-\	-mi-	8r	8r
8D\	6\	8ff\	8bb-\	8D/	-nus	8B-\	-nus	8f\	-nus	8b-\	-nus	8f\	8b-\
8C\	.	8dd\	4aan\	4C/	De-	4An/	De-	4c/	De-	8ee-\	De-	4e-\	4aX\
8C\J	.	8b-\J	.	.	.	.	.	.	.	8ee-\	-us	.	.
!LO:LB:g=original	!	!	!	!	!	!LO:LB:g=original	!	!	!	!	!	!	!
=7	=7	=7	=7	=7	=7	=7	=7	=7	=7	=7	=7	=7	=7
!LO:TX:t=P:problem=mixed beam	!	!	!	!	!	!	!	!	!	!	!	!	!
8BB-/L	.	4dd\	4bb-\	4BB-/	-us	4B-\	-us	4f\	-us	4dd\	Sab-	4f\	4b-\
8BB-/	.	.	.	.	.	.	.	.	.	.	.	.	.
8F\	4n_	4.cc\	4.bb-\	4.F\	Sab-	4.B-\	Sab-	4.f\	Sab-	[4.cc\	.	4.f\	4.b-\
8F\	.	.	.	.	.	.	.	.	.	.	.	.	.
8FF/	.	.	.	.	.	.	.	.	.	.	.	.	.
8FF/J	x	8cc\	8aan\	8FF/	-ba-	8An\	-ba-	8f\	-ba-	8cc\]	.	8f\	8aX\
!	!	!	!	!LO:LB:g=original	!	!	!	!	!	!LO:LB:g=original	!	!	!
=8	=8	=8	=8	=8	=8	=8	=8	=8	=8	=8	=8	=8	=8
!LO:TX:t=P:problem=mixed beam	!	!	!	!	!	!	!	!	!	!	!	!	!
8BB-/L	.	8dd\	8bb-\	8BB-/	-oth	8B-\	-oth.	8f\	-oth	8dd\	-oth	8e-\	8b-\
8B-\	.	8r	8r	8r	.	8r	.	8r	.	8b-\L	San-	8r	8r
8B-\	.	4r	4r	4r	.	4r	.	4r	.	8dd\	.	4r	4r
8B-\	.	.	.	.	.	.	.	.	.	8ff\	.	.	.
8B-\	.	4r	4r	4r	.	4r	.	4r	.	8dd\	.	4r	4r
8B-\J	.	.	.	.	.	.	.	.	.	8b-\J	.	.	.
!	!	!	!	!	!	!	!	!	!	!	!	!LO:LB:g=original	!LO:LB:g=original
=9	=9	=9	=9	=9	=9	=9	=9	=9	=9	=9	=9	=9	=9
8An\L	6_	2.r	2.r	8r	.	2.r	.	2.r	.	4cc\	.	2.r	2.r
8A\	.	.	.	8F\L	San-	.	.	.	.	.	.	.	.
8A\	.	.	.	8An\	.	.	.	.	.	4f/	-ctus	.	.
8A\	.	.	.	8c\	.	.	.	.	.	.	.	.	.
8A\	.	.	.	8A\	.	.	.	.	.	4r	.	.	.
8A\J	x	.	.	8F\J	.	.	.	.	.	.	.	.	.
=10	=10	=10	=10	=10	=10	=10	=10	=10	=10	=10	=10	=10	=10
8B-\L	.	8r	8r	8B-\	.	8d\	San-	8f\	San-	8b-\	San-	2.r	2.r
8B-\	.	8dd\L	8b-\L	8B-\	-ctus	8d\	-ctus	8f\	-ctus	8dd\	-ctus	.	.
*	*	*	*	*	*ij	*	*ij	*	*ij	*	*ij	*	*
8B-\	.	8dd\	8dd\	8B-\	San-	8d\	San-	8f\	San-	8dd\	San-	.	.
8B-\	.	8dd\	8ff\	8B-\	-ctus	8d\	-ctus	8f\	-ctus	8ff\	-ctus	.	.
*	*	*	*	*	*Xij	*	*Xij	*	*Xij	*	*Xij	*	*
8B-\	.	8dd\	8dd\	8B-\	San-	8d\	San-	8f\	San-	8dd\	San-	.	.
8B-\J	.	8dd\J	8b-\J	8B-\	-ctus	8d\	-ctus	8f\	-ctus	8b-\	-ctus	.	.
!	!	!LO:LB:g=original	!LO:LB:g=original	!	!	!	!	!	!	!	!	!	!
=11	=11	=11	=11	=11	=11	=11	=11	=11	=11	=11	=11	=11	=11
8An\L	6_	8cc\L	8cc\L	4.An\	Do-	4.c\	Do-	4.f\	Do-	4.cc\	Do-	2.r	2.r
8A\	.	8f\	8cc\	.	.	.	.	.	.	.	.	.	.
8A\	.	8an\	8cc\	.	.	.	.	.	.	.	.	.	.
8A\	.	8cc\	8cc\	8A\	-mi-	8c\	-mi-	8f\	-mi-	8cc\	-mi-	.	.
8A\	.	8a\	8cc\	4A\	-nus	4c\	-nus	4f\	-nus	4ff\	-nus	.	.
8A\J	x	8f\J	8cc\J	.	.	.	.	.	.	.	.	.	.
=12	=12	=12	=12	=12	=12	=12	=12	=12	=12	=12	=12	=12	=12
8B-\L	.	8b-\L	8dd\L	8B-\	San-	8d\	San-	8f\	San-	8b-\	San-	8r	8r
8B-\	.	8dd\	8b-\	8B-\	-ctus	8d\	-ctus	8f\	-ctus	8dd\	-ctus	8B-/L	8f\L
*	*	*	*	*	*ij	*	*ij	*	*ij	*	*ij	*	*
8B-\	.	8dd\	8dd\	8B-\	San-	8d\	San-	8f\	San-	8dd\	San-	8B-/	8f\
8B-\	.	8dd\J	8ff\	8B-\	-ctus	8d\	-ctus	8f\	-ctus	8ff\	-ctus	8B-/	8f\
*	*	*	*	*	*Xij	*	*Xij	*	*Xij	*	*Xij	*	*
8B-\	.	16dd\LL	8dd\	8B-\	San-	8d\	San-	8f\	San-	8dd\	San-	8B-/	8f\
.	.	16cc\	.	.	.	.	.	.	.	.	.	.	.
8B-\J	.	16dd\	8b-\J	8B-\	-ctus	8d\	-ctus	8f\	-ctus	8b-\	-ctus	8B-/J	8f\J
.	.	16cc\JJ	.	.	.	.	.	.	.	.	.	.	.
!	!	!	!	!	!	!	!	!LO:LB:g=original	!	!	!	!	!
=13	=13	=13	=13	=13	=13	=13	=13	=13	=13	=13	=13	=13	=13
8G\L	6_	8b-\L	8ee-\L	4G\	Do-	4B-\	Do-	4g\	Do-	4ee-\	Do-	8e-\L	8b-\L
8G\	.	8b-\	8ee-\	.	.	.	.	.	.	.	.	8e-\	8g\
8G\	.	8b-\	8ee-\	8G\	-mi-	8B-\	-mi-	8e-\	-mi-	8ee-\	-mi-	8e-\	8g\
8G\	.	8b-\	8ee-\	8G\	-nus	8B-\	-nus	8e-\	-nus	8ee-\	-nus	8e-\	8e-\
8A-X\	x	8cc\	8ee-\	4A-X\	De-	4c\	De-	4a-\	De-	4ee-\	De-	8e-\	8e-\
8A-\J	.	8cc\J	8ee-\J	.	.	.	.	.	.	.	.	8e-\J	8e-\J
!LO:LB:g=original	!	!	!	!	!	!LO:LB:g=original	!	!	!	!	!	!	!
=14	=14	=14	=14	=14	=14	=14	=14	=14	=14	=14	=14	=14	=14
!LO:TX:t=P:problem=mixed beam	!	!	!	!	!	!	!	!	!	!	!	!	!
8F\L	.	8a-X\L	8ff\L	4F\	-us	4c\	-us	4a-\	-us	4ff\	-us	4f\	4a-\
8F\	.	16b-\L	16gg\L	.	.	.	.	.	.	.	.	.	.
.	.	16cc\JJ	16aa-\JJ	.	.	.	.	.	.	.	.	.	.
8B-\	.	8f/L	8dd\L	4.B-\	Sab-	4.B-\	Sab-	4.f\	Sab-	4.dd\	Sab-	4.B-/	4.f\
8B-\	.	8f/J	8dd\J	.	.	.	.	.	.	.	.	.	.
8BB-/	.	16f/LL	16dd\LL	.	.	.	.	.	.	.	.	.	.
.	.	16g/	16ee-\	.	.	.	.	.	.	.	.	.	.
8BB-/J	.	16a-/	16ff\	8BB-/	-ba-	8B-\	-ba-	8f\	-ba-	8dd\	-ba-	8B-/	8f\
.	.	16b-/JJ	16gg\JJ	.	.	.	.	.	.	.	.	.	.
!	!	!	!	!LO:LB:g=original	!	!	!	!	!	!LO:LB:g=original	!	!	!
=15	=15	=15	=15	=15	=15	=15	=15	=15	=15	=15	=15	=15	=15
!	!	!	!	!	!	!	!	!	!	!	!	!	!LO:TX:t=P:problem=mixed beam
4E-\	.	8g/L	8ee-\L	4E-\	-oth	4B-\	-oth	4g\	-oth	4ee-\	-oth	8G/L	8e-\L
.	.	8g/	8b-\	.	.	.	.	.	.	.	.	8E-/	8G/
4r	.	8g/	8b-\	4r	.	4r	.	4r	.	4r	.	8E-/	8G/
.	.	8g/	8b-\	.	.	.	.	.	.	.	.	8E-/	8G/
4r	.	8g/	8b-\	4r	.	4r	.	4r	.	4r	.	8E-/	8G/
.	.	8g/J	8b-\J	.	.	.	.	.	.	.	.	8E-/J	8G/J
=16	=16	=16	=16	=16	=16	=16	=16	=16	=16	=16	=16	=16	=16
8C/L	.	4g/	4cc\	4C/	Ple-	4G/	Ple-	4e-\	Ple-	4cc\	Ple-	4E-/	4G/
8C/	.	.	.	.	.	.	.	.	.	.	.	.	.
8C/	.	4r	4r	4C/	-ni	4G/	-ni	4e-\	-ni	4cc\	-ni	4r	4r
8C/	.	.	.	.	.	.	.	.	.	.	.	.	.
8C/	.	4r	4r	4c\	ſunt	4G/	ſunt	4e-\	ſunt	4cc\	ſunt	4r	4r
8C/J	.	.	.	.	.	.	.	.	.	.	.	.	.
=17	=17	=17	=17	=17	=17	=17	=17	=17	=17	=17	=17	=17	=17
8BBn/L	6_	2.r	2.r	4Bn\	Cae-	4G/	Cae-	4g\	Cae-	4dd\	Cae-	2.r	2.r
8BB/	.	.	.	.	.	.	.	.	.	.	.	.	.
8BB/	.	.	.	4B\	-li	4G/	-li	4g\	-li	4dd\	-li	.	.
8BB/	.	.	.	.	.	.	.	.	.	.	.	.	.
8BB/	.	.	.	4B\	et	4G/	et	4g\	et	4dd\	et	.	.
8BB/J	x	.	.	.	.	.	.	.	.	.	.	.	.
=18	=18	=18	=18	=18	=18	=18	=18	=18	=18	=18	=18	=18	=18
8C/L	.	8r	8r	4c\	ter-	4c\	ter-	4g\	ter-	4ee-\	ter-	8r	8r
8C/	.	8e-/L	8cc\L	.	.	.	.	.	.	.	.	8G/L	8G/L
8C/	.	8e-/	8ee-\	4C/	-ra	4c\	-ra	4g\	-ra	4ee-\	-ra	8G/	8G/
8C/	.	8e-/	8gg\	.	.	.	.	.	.	.	.	8G/	8G/
8C/	.	8e-/	8ee-\	4r	.	4r	.	4r	.	4r	.	8G/	8G/
8C/J	.	8e-/J	8cc\J	.	.	.	.	.	.	.	.	8G/J	8G/J
!	!	!LO:LB:g=original	!	!	!	!	!	!	!	!	!	!LO:LB:g=original	!
=19	=19	=19	=19	=19	=19	=19	=19	=19	=19	=19	=19	=19	=19
8BBn/L	6_	8g/L	8dd\L	2.r	.	2.r	.	2.r	.	2.r	.	8G/L	8G/L
8BB/	.	8g/	8dd\	.	.	.	.	.	.	.	.	8G/	8G/
8BB/	.	8g/	8dd\	.	.	.	.	.	.	.	.	8G/	8G/
8BB/	.	8g/	8dd\	.	.	.	.	.	.	.	.	8G/	8G/
8BB/	.	8g/	8dd\	.	.	.	.	.	.	.	.	8G/	8G/
8BB/J	x	8g/J	8dd\J	.	.	.	.	.	.	.	.	8G/J	8G/J
!	!	!	!LO:LB:g=original	!	!	!	!	!	!	!	!	!	!LO:LB:g=original
=20	=20	=20	=20	=20	=20	=20	=20	=20	=20	=20	=20	=20	=20
8C/L	.	8cc\L	8ee-\L	4C/	Ple-	4G/	Ple-	4e-\	Ple-	4cc\	Ple-	4G/	4G/
8C/	.	8ee-\	8gg\	.	.	.	.	.	.	.	.	.	.
8C/	.	8ee-\	8gg\	4C/	-ni	4G/	-ni	4e-\	-ni	4cc\	-ni	8r	8r
8C/	.	8ee-\	8gg\	.	.	.	.	.	.	.	.	8G/L	8g\L
8C/	.	8ee-\	8gg\	4c\	ſunt	4G/	ſunt	4e-\	ſunt	4cc\	ſunt	8G/	8g\
8C/J	.	8ee-\J	8gg\J	.	.	.	.	.	.	.	.	8G/J	8g\J
!LO:LB:g=original	!	!	!	!	!	!	!	!	!	!	!	!	!
=21	=21	=21	=21	=21	=21	=21	=21	=21	=21	=21	=21	=21	=21
8BBn/L	.	8dd\L	16gg\LL	4Bn\	Cae-	4G/	Cae-	4g\	Cae-	4dd\	Cae-	4G/	4g\
.	.	.	16aa-\	.	.	.	.	.	.	.	.	.	.
8BB/	.	8dd\	16gg\	.	.	.	.	.	.	.	.	.	.
.	.	.	16aa-\JJ	.	.	.	.	.	.	.	.	.	.
8BB/	.	8dd\	16gg\LL	4B\	-li	4G/	-li	4g\	-li	4dd\	-li	8r	8r
.	.	.	16aa-\	.	.	.	.	.	.	.	.	.	.
8BB/	.	8dd\	16gg\	.	.	.	.	.	.	.	.	8G/L	8g\L
.	.	.	16aa-\JJ	.	.	.	.	.	.	.	.	.	.
8BB/	.	8dd\	16gg\LL	4B\	et	4G/	et	4g\	et	4dd\	et	8G/	8g\
.	.	.	16aa-\	.	.	.	.	.	.	.	.	.	.
8BB/J	.	8dd\J	16gg\	.	.	.	.	.	.	.	.	8G/J	8g\J
.	.	.	16aa-\JJ	.	.	.	.	.	.	.	.	.	.
=22	=22	=22	=22	=22	=22	=22	=22	=22	=22	=22	=22	=22	=22
!LO:TX:t=P:problem=mixed beam	!	!	!	!	!	!	!	!	!	!	!	!	!
8C/L	.	8ee-\L	8gg\L	4c\	ter-	4c\	ter-	4g\	ter-	4ee-\	ter-	4G/	4g\
8C/	.	8ee-\	8gg\	.	.	.	.	.	.	.	.	.	.
8c\	.	8ee-\	8gg\	8c\	-ra	8c\	-ra	8g\	-ra	8ee-\	-ra	4r	4r
8c\	.	8ee-\	8gg\J	4c\	glo-	4c\	glo-	4g\	glo-	4ee-\	glo-	.	.
8c\	.	8ee-\	8gg\L	.	.	.	.	.	.	.	.	4r	4r
8c\J	.	8ee-\J	16ff\L	16c\	-ri-	16c\	-ri-	16g\	-ri-	16ee-\	-ri-	.	.
.	.	.	16gg\JJ	16c\	-a	16c\	-a	16g\	-a	16ee-\	-a	.	.
!	!	!	!	!	!	!LO:LB:g=original	!	!LO:LB:g=original	!	!	!	!	!
=23	=23	=23	=23	=23	=23	=23	=23	=23	=23	=23	=23	=23	=23
8F\L	.	8ff\L	8aa-\L	8F\	tu-	8c\	tu-	8a-\	tu-	8ff\	tu-	2.r	2.r
8B-\	.	8cc\J	8ff\	4F\	-a	8c\	-a	8a-\	-a	8ff\	-a	.	.
8B-\	.	8dd\L	8ff\	.	.	4B-\	glo-	4f\	Glo-	4dd\	glo-	.	.
8B-\	.	8dd\J	8ff\J	4B-\	glo-	.	.	.	.	.	.	.	.
8B-\	.	8dd\L	8ff\L	.	.	8B-\	-ri-	8f\	-ri-	8dd\	-ri-	.	.
8B-\J	.	16cc\L	16ee-\L	16B-\	-ri-	8B-\	-a	8f\	-a	8dd\	-a	.	.
.	.	16dd\JJ	16ff\JJ	16B-\	-a	.	.	.	.	.	.	.	.
!	!	!	!	!	!	!	!	!	!	!	!LO:LB:g=original	!	!
=24	=24	=24	=24	=24	=24	=24	=24	=24	=24	=24	=24	=24	=24
8E-\L	.	8ee-\L	8gg\L	8E-\	tu-	8B-\	tu-	8g\	tu-	8ee-\	tu-	2.r	2.r
8E-\	.	8b-\J	8ee-\	8E-\	-a	8B-\	-a	8g\	-a	8ee-\	-a	.	.
8A-\	.	8cc\L	8ee-\	2A-\	Glo-	2c\	Glo-	2e-\	Glo-	2cc\	Glo-	.	.
8A-\	.	8cc\J	8ee-\J	.	.	.	.	.	.	.	.	.	.
8A-\	.	8cc\L	8ee-\L	.	.	.	.	.	.	.	.	.	.
8A-\J	.	16b-\L	16dd\L	.	.	.	.	.	.	.	.	.	.
.	.	16cc\JJ	16ee-\JJ	.	.	.	.	.	.	.	.	.	.
!	!	!	!	!LO:LB:g=original	!	!	!	!	!	!	!	!	!
=25	=25	=25	=25	=25	=25	=25	=25	=25	=25	=25	=25	=25	=25
!LO:TX:t=P:problem=mixed beam	!	!	!	!	!	!	!	!	!	!	!	!	!
8F\L	6 5	8dd\L	8ff\L	8F\	-ri-	8c\	-ri-	8a-\	-ri-	8dd\	-ri-	4r	4r
8F\	.	16dd\L	16ff\L	8F\	-a	8c\	-a	8a-\	-a	8dd\	-a	.	.
.	.	16cc\JJ	16ee-\JJ	.	.	.	.	.	.	.	.	.	.
8G\	4	8bn\L	8dd\L	2G\	tu-	4c\	tu-	2g\	tu-	2dd\	tu-	8G/L	8G/L
8G\	.	8b\	8dd\	.	.	.	.	.	.	.	.	8G/	8G/
8GG/	n	8b\	8dd\	.	.	4B#X\	.	.	.	.	.	8G/	8G/
8GG/J	.	8b\J	8dd\J	.	.	.	.	.	.	.	.	8G/J	8G/J
=26	=26	=26	=26	=26	=26	=26	=26	=26	=26	=26	=26	=26	=26
2C/	.	2cc\	2cc\	2C/	-a	2c\	-a	2g\	-a	2cc\	-a	2G/	2G/
4r	.	4r	4r	4r	.	4r	.	4r	.	4r	.	4r	4r
==	==	==	==	==	==	==	==	==	==	==	==	==	==
*-	*-	*-	*-	*-	*-	*-	*-	*-	*-	*-	*-	*-	*-
!!!RDF**kern: < = below
!!!RDF**kern: > = above
!!!system-decoration: [(s1,s2)][(s3,s4,s5,s6)][(s7,s8)]s9
!!!ENC: Tomasz Grochalski
!!!END: 2020-12-16
!!!ENC: Urszula Świątek
!!!END: 2022-03-25
!!!YEC: Copyright 2022 Narodowy Instytut Fryderyka Chopina (https://polishscores.org)
!!!YEM: License CC-BY-4.0 (https://creativecommons.org/licenses/by/4.0)
